www/assets/icons/monitor_heart.svg

<svg xmlns="http://www.w3.org/2000/svg" width="24" height="24" viewBox="0 0 24 24" fill='currentColor'><path d="M15.11 12.45 14 10.24l-3.11 6.21c-.16.34-.51.55-.89.55s-.73-.21-.89-.55L7.38 13H2v5c0 1.1.9 2 2 2h16c1.1 0 2-.9 2-2v-5h-6c-.38 0-.73-.21-.89-.55"/><path d="M20 4H4c-1.1 0-2 .9-2 2v5h6c.38 0 .73.21.89.55L10 13.76l3.11-6.21c.34-.68 1.45-.68 1.79 0L16.62 11H22V6c0-1.1-.9-2-2-2"/></svg>

<svg width="24" height="24" viewBox="0 0 24 24" xmlns="http://www.w3.org/2000/svg" fill='currentColor'><path d="M15.11 12.45L14 10.24L10.89 16.45C10.73 16.79 10.38 17 10 17C9.62 17 9.27 16.79 9.11 16.45L7.38 13H2V18C2 19.1 2.9 20 4 20H20C21.1 20 22 19.1 22 18V13H16C15.62 13 15.27 12.79 15.11 12.45Z"/><path d="M20 4H4C2.9 4 2 4.9 2 6V11H8C8.38 11 8.73 11.21 8.89 11.55L10 13.76L13.11 7.55C13.45 6.87 14.56 6.87 14.9 7.55L16.62 11H22V6C22 4.9 21.1 4 20 4Z"/></svg>
